X:5517
T:Repetition Reel, The
O:england
C:Alan Ng
N:idea conceived by Dan Cobb. Parts beyond two are optional (depends on the audience).
R:reel
M:C|
K:D
E:16
Aded Aded|Aded B2cB|Aded Aded|Aded A4:|
E:13
|:fdcd fdcd|fdcd a3g|fdcd fdcd|1fdcd A2de:|2fdcd A4||
E:12
|:"3rd part (get the point?)"cded cded|cded cded|\
cded cded|1cded A2AB:|2cded A2AG|:"4th part (drive the point home)"FGAG FGAG|\
FGAG GABG|FGAG FGAG|FGAG FGAG:|


